!!!OTL: DA DROBEN AUF DEM BERGE
!!!ARE: Europa, Mitteleuropa, Deutschland, Sued - Deutschland
!!!SCT: Z0074A
!!!YEM: Copyright 1995, estate of Helmut Schaffrath.
**kern
*ICvox
*Ivox
*M6/8
*k[f#]
*G:
{8d
=1
8d
8g
16g
16g
8f#
8f#
16f#
16f#
=2
8f#
8d
8f#
8g
8r}
{8g
=3
16g
16g
8b
16b
16b
16dd
16dd
8cc
8cc
=4
8cc
8d
8f#
4g}
{8d
=5
4b
16a
16g
8g
8f#
8d
=6
4cc
16b
16a
8a
8g
8g}
=7
{4b
16a
16g
8g
8f#
8d
=8
4cc
16b
16a
8a
8g
8g}
=9
{8g
8b
8b
8dd
8cc
8cc
=10
8cc
8d
8f#
8a
8r}
{8f#
=11
8g
8b
8b
8dd
8cc
8cc
=12
8cc
8d
8f#
8g
8r}
{8d
=13
8d
8g
8g
8f#
8r
8cc
=14
8cc
8d
8f#
8g
8r}
{8d
=15
8d
8g
8g
8f#
8r
8cc
=16
8cc
8d
8f#
8g
8r}
{8d
=17
8d
8g
8g
8f#
8r
8cc
=18
8cc
8d
8f#
8g
8r}
{8d
=19
8d
8g
8g
8f#
8r
8cc
=20
8cc
8d
8f#
4g}
==
!!!AGN: Sagen - Lied, Romanze
!! Zweiter Teil des Liedes Z0074
!!!ONB: ESAC (Essen Associative Code) Database: ZUCCAL
!!!AMT: compound duple
!!!AIN: vox
!!!EED: Helmut Schaffrath
!!!EEV: 1.0
*-
